icons/ear.svg

<svg width="24" height="24" viewBox="0 0 24 24" fill="none" xmlns="http://www.w3.org/2000/svg">
<path d="M5 9.78423C4.99946 8.58248 5.28391 7.39774 5.83 6.32723C6.3822 5.2472 7.17779 4.31023 8.154 3.59023C9.14111 2.86137 10.2807 2.36594 11.487 2.14123C12.6983 1.91459 13.945 1.96312 15.135 2.28323C16.3184 2.60033 17.4141 3.18271 18.339 3.98623C19.2529 4.78032 19.9689 5.77674 20.43 6.89623C20.8874 8.00756 21.0739 9.21172 20.9743 10.4093C20.8747 11.607 20.4917 12.7637 19.857 13.7842C19.2038 14.6295 18.4342 15.3779 17.571 16.0072C16.5632 16.9278 15.7813 18.0683 15.286 19.3402C14.9282 19.9948 14.4295 20.5618 13.826 21.0002C13.216 21.4443 12.5169 21.7507 11.777 21.8982C11.034 22.0471 10.2677 22.0344 9.53 21.8612C8.79594 21.6891 8.10805 21.3595 7.514 20.8952" stroke="white" stroke-width="2" stroke-linecap="round" stroke-linejoin="round"/>
<path d="M9.00002 10.0588C8.99229 9.38839 9.15237 8.72664 9.46571 8.13386C9.77904 7.54107 10.2357 7.03608 10.794 6.66484C11.6367 6.10626 12.6598 5.88811 13.657 6.0544C14.6542 6.22069 15.5512 6.75905 16.167 7.56084C16.7847 8.3635 17.0764 9.36985 16.9837 10.3784C16.8909 11.3869 16.4207 12.3233 15.667 12.9998" stroke="white" stroke-width="2" stroke-linecap="round" stroke-linejoin="round"/>
</svg>

<svg
  width="24"
  height="24"
  viewBox="0 0 24 24"
  xmlns="http://www.w3.org/2000/svg"
  fill="none"
  stroke="currentColor"
  stroke-width="2"
  stroke-linecap="round"
  stroke-linejoin="round"
>
  <path d="M5 9.784a7.6 7.6 0 0 1 .83-3.457A7.83 7.83 0 0 1 8.154 3.59a8.112 8.112 0 0 1 3.333-1.449 8.222 8.222 0 0 1 3.648.142 8.07 8.07 0 0 1 3.204 1.703 7.78 7.78 0 0 1 2.091 2.91 7.58 7.58 0 0 1-.573 6.888 11.31 11.31 0 0 1-2.286 2.223 8.877 8.877 0 0 0-2.285 3.333 5.04 5.04 0 0 1-1.46 1.66 5.214 5.214 0 0 1-2.049.898 5.287 5.287 0 0 1-2.247-.037 5.202 5.202 0 0 1-2.016-.966" />
  <path d="M9 10.059a4.02 4.02 0 0 1 1.794-3.394 3.993 3.993 0 0 1 5.373.896 4.017 4.017 0 0 1-.5 5.439" />
</svg>
